src/svg/36/money_circle_outline_36.svg

<svg fill="none" height="36" viewBox="0 0 36 36" width="36" xmlns="http://www.w3.org/2000/svg"><g clip-rule="evenodd" fill="currentColor" fill-rule="evenodd"><path d="m14.3093 11c-.0559 0-.1012.0453-.1012.1012v6.9118h-1.0059c-.093 0-.1395 0-.1788.0028-.5466.0391-.9815.474-1.0206 1.0206-.0028.0393-.0028.0858-.0028.1788s0 .1396.0028.1788c.0391.5467.474.9815 1.0206 1.0206.0393.0028.0858.0028.1788.0028h1.0078v1.8034h-1.1581c-.5809 0-1.0519.471-1.0519 1.0519 0 .581.471 1.052 1.0519 1.052h1.1581v.9117c0 .0837 0 .1256.0023.1609.0356.5529.4761.9934 1.029 1.029.0353.0023.0772.0023.1609.0023.0838 0 .1256 0 .161-.0023.5529-.0356.9934-.4761 1.029-1.029.0022-.0353.0022-.0772.0022-.1609v-.9117h2.0679c.581 0 1.052-.471 1.052-1.052 0-.5809-.471-1.0519-1.052-1.0519h-2.0679v-1.8034h3.1239c2.6005 0 4.7087-2.1081 4.7087-4.7087 0-2.6005-2.1082-4.7087-4.7087-4.7087zm5.4551 7.013h-3.17v-4.8089h3.17c1.3279 0 2.4044 1.0765 2.4044 2.4044 0 1.328-1.0765 2.4045-2.4044 2.4045z"/><path d="m18 3c8.2843 0 15 6.71573 15 15 0 8.2843-6.7157 15-15 15-8.28427 0-15-6.7157-15-15 0-8.28427 6.71573-15 15-15zm0 2.5c-6.9036 0-12.5 5.5964-12.5 12.5s5.5964 12.5 12.5 12.5 12.5-5.5964 12.5-12.5-5.5964-12.5-12.5-12.5z"/></g></svg>

<svg width="36" height="36" viewBox="0 0 36 36" fill="none" xmlns="http://www.w3.org/2000/svg">
<path fill-rule="evenodd" clip-rule="evenodd" d="M18 3C26.2843 3 33 9.71573 33 18C33 26.2843 26.2843 33 18 33C9.71573 33 3 26.2843 3 18C3 9.71573 9.71573 3 18 3ZM18 5.5C11.0964 5.5 5.5 11.0964 5.5 18C5.5 24.9036 11.0964 30.5 18 30.5C24.9036 30.5 30.5 24.9036 30.5 18C30.5 11.0964 24.9036 5.5 18 5.5ZM14.3093 11C14.2534 11 14.2081 11.0453 14.2081 11.1012V18.013H13.3103H13.2022C13.1092 18.013 13.0627 18.013 13.0234 18.0158C12.4768 18.0549 12.0419 18.4898 12.0028 19.0364C12 19.0757 12 19.1222 12 19.2152C12 19.3082 12 19.3548 12.0028 19.394C12.0419 19.9407 12.4768 20.3755 13.0234 20.4146C13.0627 20.4174 13.1092 20.4174 13.2022 20.4174H13.3103L14.2081 20.4174H14.21V22.2208H13.0519C12.471 22.2208 12 22.6918 12 23.2727C12 23.8537 12.471 24.3247 13.0519 24.3247H14.21V25.2364C14.21 25.3201 14.21 25.362 14.2123 25.3973C14.2479 25.9502 14.6884 26.3907 15.2413 26.4263C15.2766 26.4286 15.3185 26.4286 15.4022 26.4286C15.486 26.4286 15.5278 26.4286 15.5632 26.4263C16.1161 26.3907 16.5566 25.9502 16.5922 25.3973C16.5944 25.362 16.5944 25.3201 16.5944 25.2364V24.3247H18.6623C19.2433 24.3247 19.7143 23.8537 19.7143 23.2727C19.7143 22.6918 19.2433 22.2208 18.6623 22.2208H16.5944V20.4174L19.7183 20.4174C22.3188 20.4174 24.427 18.3093 24.427 15.7087C24.427 13.1082 22.3188 11 19.7183 11H15.4022H14.3093ZM19.7644 18.013H16.5944V13.2041H19.7644C21.0923 13.2041 22.1688 14.2806 22.1688 15.6085C22.1688 16.9365 21.0923 18.013 19.7644 18.013Z" fill="currentColor"/>
</svg>
